svgs/duotone/hat-chef.svg

<svg xmlns="http://www.w3.org/2000/svg" viewBox="0 0 512 512"><!--! Font Awesome Pro 6.3.0 by @fontawesome - https://fontawesome.com License - https://fontawesome.com/license (Commercial License) Copyright 2023 Fonticons, Inc. --><defs><style>.fa-secondary{opacity:.4}</style></defs><path class="fa-primary" d="M448 320v160c0 17.6-14.4 32-32 32H96c-17.6 0-32-14.4-32-32v-160h74.45L112.2 162.7C110.8 153.1 116.6 145.7 125.3 144.2c8.562-1.594 16.98 4.336 18.45 13.09L170.9 320H240V160c0-8.844 7.156-16 16-16s16 7.156 16 16v160h69.12l27.12-162.7c1.469-8.75 9.984-14.68 18.45-13.09c8.719 1.438 14.55 9.742 13.09 18.46L373.6 320H448z"/><path class="fa-secondary" d="M512 128c0 41.75-64 192-64 192h-74.45l26.22-157.3c1.469-8.719-4.367-17.02-13.09-18.46c-8.469-1.594-16.98 4.336-18.45 13.09L341.1 320H272V160c0-8.844-7.156-16-16-16S240 151.2 240 160v160H170.9L143.8 157.3c-1.469-8.75-9.891-14.68-18.45-13.09C116.6 145.7 110.8 153.1 112.2 162.7L138.4 320H64c0 0-64-150.3-64-192C-.125 91.5 20.38 58.12 53.13 42c32.63-16.25 71.63-12.5 100.6 9.75C177.1 20.5 213.1 0 256 0c41.1 0 78.88 20.5 102.3 51.75C374.9 39 395.1 32.13 416 32C469 32 512 75 512 128z"/></svg>

<svg xmlns="http://www.w3.org/2000/svg" viewBox="0 0 512 512"><!-- Font Awesome Pro 6.0.0-alpha2 by @fontawesome - https://fontawesome.com License - https://fontawesome.com/license (Commercial License) --><defs><style>.fa-secondary{opacity:.4}</style></defs><path d="M512.001 128C512.001 169.75 448.001 320 448.001 320H373.553L399.782 162.625C401.251 153.906 395.344 145.656 386.626 144.219C378.157 142.625 369.688 148.625 368.219 157.375L341.116 320H272.001V160C272.001 151.156 264.844 144 256.001 144S240.001 151.156 240.001 160V320H170.885L143.782 157.375C142.313 148.625 133.938 142.625 125.376 144.219C116.657 145.656 110.751 153.906 112.219 162.625L138.448 320H64.001C64.001 320 0.001 169.75 0.001 128C-0.124 91.5 20.376 58.125 53.126 42C85.751 25.75 124.751 29.5 153.751 51.75C177.126 20.5 214 0 256.001 0C298 0 334.876 20.5 358.251 51.75C374.876 39 395.126 32.125 416.001 32C469.001 32 512.001 75 512.001 128Z" class="fa-secondary"/><path d="M448 320V480C448 497.602 433.6 512 416 512H96C78.4 512 64 497.602 64 480V320H138.447L112.219 162.625C110.75 153.906 116.656 145.656 125.375 144.219C133.938 142.625 142.313 148.625 143.781 157.375L170.885 320H240V160C240 151.156 247.156 144 256 144S272 151.156 272 160V320H341.115L368.219 157.375C369.688 148.625 378.156 142.625 386.625 144.219C395.344 145.656 401.25 153.906 399.781 162.625L373.553 320H448Z" class="fa-primary"/></svg>
